icon/cg/corner-left-up.svg

<svg viewBox="0 0 24 24" fill="none" xmlns="http://www.w3.org/2000/svg" height="1em" width="1em">
  <path d="M14.71 10.6254L16.1229 9.20989L9.7531 2.85181L3.39502 9.22164L4.81054 10.6346L8.59179 6.84631L8.60131 17.152C8.60335 19.3611 10.3959 21.1503 12.605 21.1483L20.605 21.1409L20.6032 19.1409L12.6032 19.1483C11.4986 19.1493 10.6023 18.2547 10.6013 17.1501L10.5915 6.51446L14.71 10.6254Z" fill="currentColor"/>
</svg>

<svg width="24" height="24" fill="none" xmlns="http://www.w3.org/2000/svg"><path d="m14.71 10.625 1.413-1.415-6.37-6.358-6.358 6.37 1.416 1.413 3.78-3.789.01 10.306a4 4 0 0 0 4.004 3.996l8-.007-.002-2-8 .007a2 2 0 0 1-2.002-1.998l-.01-10.636 4.119 4.111Z" fill="currentColor"/></svg>
